!!!OTL: AM HEILIGEN ABEND VORM OSTERFEST
!!!ARE: Europa, Mitteleuropa, Deutschland
!!!SCT: F0201
!!!YEM: Copyright 1995, estate of Helmut Schaffrath.
**kern
*ICvox
*Ivox
*M3/8
*k[]
*a:
{8e
=1
8.a
16a
8a
=2
8a
8a
8ccn
=3
4ccn
8b
=4
4b}
{16b
16b
=5
8.b
16b
16b
16b
=6
4ee
8dd
=7
8ccn
8b
8ccn
=8
8.a}
{16a
16a
16a
=9
8.b
16ccn
16b
16a
=10
8b
8b
8ccn
=11
4dd
16ccn
16dd
=12
8ee
8ee}
{8ee
=13
8ee
8dd
8dd
=14
4ccn
8ccn
=15
4ccn
8b
=16
8b
8a}
==
!!!AGN: Liebes - Lied, Leid, Klage
!!!ONB: ESAC (Essen Associative Code) Database: FINK
!!!AMT: simple triple
!!!AIN: vox
!!!EED: Helmut Schaffrath
!!!EEV: 1.0
*-
